icons/svg/shopping/interior_decoration.svg

<?xml version="1.0" encoding="UTF-8" standalone="no"?>
<!-- Created with Inkscape (http://www.inkscape.org/) -->

<svg
   xmlns:dc="http://purl.org/dc/elements/1.1/"
   xmlns:cc="http://creativecommons.org/ns#"
   xmlns:rdf="http://www.w3.org/1999/02/22-rdf-syntax-ns#"
   xmlns:svg="http://www.w3.org/2000/svg"
   xmlns="http://www.w3.org/2000/svg"
   xmlns:sodipodi="http://sodipodi.sourceforge.net/DTD/sodipodi-0.dtd"
   xmlns:inkscape="http://www.inkscape.org/namespaces/inkscape"
   version="1.0"
   width="580"
   height="580"
   id="svg2"
   sodipodi:version="0.32"
   inkscape:version="0.91 r"
   sodipodi:docname="interior_decoration.svg"
   inkscape:output_extension="org.inkscape.output.svg.inkscape">
  <metadata
     id="metadata10">
    <rdf:RDF>
      <cc:Work
         rdf:about="">
        <dc:format>image/svg+xml</dc:format>
        <dc:type
           rdf:resource="http://purl.org/dc/dcmitype/StillImage" />
        <cc:license
           rdf:resource="http://web.resource.org/cc/PublicDomain" />
        <dc:language>en</dc:language>
        <dc:title></dc:title>
      </cc:Work>
    </rdf:RDF>
  </metadata>
  <sodipodi:namedview
     inkscape:window-height="1004"
     inkscape:window-width="1920"
     inkscape:pageshadow="2"
     inkscape:pageopacity="0.0"
     guidetolerance="10.0"
     gridtolerance="10.0"
     objecttolerance="10.0"
     borderopacity="1.0"
     bordercolor="#666666"
     pagecolor="#ffffff"
     id="base"
     showgrid="false"
     inkscape:zoom="0.3535534"
     inkscape:cx="32.266033"
     inkscape:cy="546.73315"
     inkscape:window-x="1680"
     inkscape:window-y="0"
     inkscape:current-layer="svg2"
     inkscape:window-maximized="1" />
  <defs
     id="defs4">
    <clipPath
       id="clipoutline2"
       clipPathUnits="userSpaceOnUse">
      <path
         d="M 55.8,12 L 56.56,12.16 C 65.4,9.22 85.24,20.8 80.82,31.12 C 79.7,32.74 79.89,35.62 81.24,37.43 L 56.43,62.25 C 55.04,60.86 51.95,60.89 50.53,62.25 L 9.5,101.63 C 5.76,105.22 8.7,108.27 10.28,109.88 L 17.64,117.24 C 19.25,118.84 23.5,121 26.52,117.8 L 65.24,76.99 C 66.59,75.57 66.6,72.52 65.24,71.12 C 65.24,71.12 65.25,71.1 65.24,71.1 L 90.15,46.2 C 92.78,48.57 95.263827,48.774854 97.62,48.13 C 102.17057,46.884568 104.70725,51.336643 107.43,54.59 L 106.2,55.8 C 104.38,57.64 104.55,60.74 106.59,62.78 C 108.63,64.82 111.74,64.99 113.56,63.17 L 121.7,55.04 C 123.52,53.2 123.35,50.1 121.3,48.07 C 119.46,46.22 116.79,45.98 114.93,47.3 C 109.35,41.04 112.28,40.1 104.92,31.95 L 91.13,17.86 C 81.2,8.12 68.3,8.13 55.8,12 z"
         id="outline2" />
    </clipPath>
    <clipPath
       id="clipoutline1"
       clipPathUnits="userSpaceOnUse">
      <path
         d="M 22.42,17.2 L 35.38,30.15 L 32.88,38.93 L 24.1,41.43 L 11.14,28.47 L 5.28,34.33 L 20.17,55.79 L 37.73,52.45 L 99.36,118.07 C 108.8,127.58 121.53,113.32 112.7,105.2 L 46.85,42.92 L 50.86,25.16 L 28.72,10.89 L 22.42,17.2 z M 103.48,109.17 C 105.16,107.49 107.88,107.49 109.56,109.17 C 111.24,110.85 111.24,113.57 109.56,115.25 C 107.88,116.92 105.16,116.92 103.48,115.25 C 101.8,113.57 101.8,110.85 103.48,109.17 z"
         id="outline1" />
    </clipPath>
    <inkscape:perspective
       sodipodi:type="inkscape:persp3d"
       inkscape:vp_x="0 : 290 : 1"
       inkscape:vp_y="0 : 1000 : 0"
       inkscape:vp_z="580 : 290 : 1"
       inkscape:persp3d-origin="290 : 193.33333 : 1"
       id="perspective12" />
    <style
       type="text/css"
       id="style6">
   
    .fil0 {fill:#EF7900}
   
  </style>
    <inkscape:perspective
       id="perspective6807"
       inkscape:persp3d-origin="29.116032 : 19.410688 : 1"
       inkscape:vp_z="58.232063 : 29.116032 : 1"
       inkscape:vp_y="0 : 1000 : 0"
       inkscape:vp_x="0 : 29.116032 : 1"
       sodipodi:type="inkscape:persp3d" />
    <inkscape:perspective
       id="perspective6954"
       inkscape:persp3d-origin="290 : 193.33333 : 1"
       inkscape:vp_z="580 : 290 : 1"
       inkscape:vp_y="0 : 1000 : 0"
       inkscape:vp_x="0 : 290 : 1"
       sodipodi:type="inkscape:persp3d" />
    <marker
       viewBox="0 0 10 10"
       refY="5"
       refX="10"
       orient="auto"
       markerWidth="4"
       markerUnits="strokeWidth"
       markerHeight="3"
       id="ArrowStart">
      <path
         id="path2295"
         d="M 10 0 L 0 5 L 10 10 z" />
    </marker>
    <marker
       viewBox="0 0 10 10"
       refY="5"
       refX="0"
       orient="auto"
       markerWidth="4"
       markerUnits="strokeWidth"
       markerHeight="3"
       id="ArrowEnd">
      <path
         id="path2292"
         d="M 0 0 L 10 5 L 0 10 z" />
    </marker>
    <inkscape:perspective
       id="perspective7597"
       inkscape:persp3d-origin="178.5405 : 158.483 : 1"
       inkscape:vp_z="357.08099 : 237.7245 : 1"
       inkscape:vp_y="0 : 1000 : 0"
       inkscape:vp_x="0 : 237.7245 : 1"
       sodipodi:type="inkscape:persp3d" />
  </defs>
  <g
     id="g1327"
     transform="translate(0.5,-0.5)">
    <path
       d="M 66.275,1.768 C 24.94,1.768 1.704,23.139 1.704,66.804 l 0,450.123 c 0,40.844 20.894,62.229 62.192,62.229 l 452.024,0 c 41.307,0 62.229,-20.316 62.229,-62.229 l 0,-450.123 c 0,-42.601 -20.922,-65.036 -63.522,-65.036 -0.003,0 -448.494,-0.143 -448.352,0 z"
       style="fill:#111111;stroke:#eeeeee;stroke-width:3.40799999"
       id="path1329"
       inkscape:connector-curvature="0" />
  </g>
  <g
     id="g2319"
     transform="translate(879.29128,36.805122)">
    <path
       id="path2323"
       style="fill:#ffffff;stroke:none"
       d=""
       inkscape:connector-curvature="0" />
  </g>
  <g
     id="g2325"
     transform="translate(879.29128,36.805122)">
    <path
       id="path2329"
       style="fill:#ffffff;stroke:none"
       d=""
       inkscape:connector-curvature="0" />
  </g>
  <path
     inkscape:connector-curvature="0"
     d="m 366.11931,125.28196 c -2.35462,0 -4.72956,-0.8221 -6.64778,-2.47642 L 290.00001,62.590098 220.52844,122.80554 c -4.23221,3.66388 -10.65669,3.20715 -14.32054,-1.02508 -3.66391,-4.23223 -3.20715,-10.64654 1.02505,-14.32057 l 76.11929,-65.970069 c 3.81613,-3.298496 9.47942,-3.298496 13.2955,0 l 76.11934,65.970069 c 4.23223,3.67403 4.68891,10.08834 1.02506,14.32057 -2.00955,2.31403 -4.84119,3.5015 -7.67283,3.5015 z"
     id="path3"
     style="fill:#ffffff;fill-opacity:1" />
  <path
     inkscape:connector-curvature="0"
     d="m 533.58176,292.74442 c 0,-17.69013 -6.61727,-32.93429 -12.46324,-46.38203 -4.02924,-9.28655 -7.83522,-18.06564 -7.83522,-24.66265 0,-6.12 3.21728,-14.23939 6.95224,-23.65788 5.94742,-15.02088 13.34622,-33.72592 13.34622,-57.53605 0,-27.98144 -22.76474,-50.746199 -50.74619,-50.746199 -25.71817,0 -47.57965,7.4597 -65.13781,13.468049 -10.74807,3.66387 -20.02448,6.83043 -26.20536,6.83043 -6.42448,0 -18.03517,-3.38985 -30.32589,-6.97253 -20.3594,-5.93731 -45.68177,-13.325949 -71.1665,-13.325949 -25.48477,0 -50.81724,7.388639 -71.16648,13.325949 -12.3009,3.58268 -23.91159,6.97253 -30.32591,6.97253 -6.18091,0 -15.45731,-3.16656 -26.19519,-6.83043 -17.56838,-6.008349 -39.42979,-13.468049 -65.14797,-13.468049 -27.981477,0 -50.74622,22.764759 -50.74622,50.746199 0,23.81013 7.398795,42.51517 13.346245,57.53605 3.73492,9.41849 6.952229,17.53788 6.952229,23.65788 0,6.59701 -3.805952,15.3761 -7.845353,24.66265 -5.835815,13.44774 -12.453121,28.6919 -12.453121,46.38203 0,12.75759 5.632827,26.6925 11.072817,40.16054 4.536718,11.22505 9.225657,22.8358 9.225657,30.88414 0,6.5564 -3.247757,14.6149 -7.013122,23.93191 -5.917001,14.68594 -13.285352,32.94443 -13.285352,57.262 0,27.98146 22.764743,50.74621 50.74622,50.74621 25.9719,0 46.98079,-7.32775 63.85901,-13.21431 10.90029,-3.80596 20.30863,-7.08417 27.48415,-7.08417 7.57133,0 19.94322,3.60298 33.04593,7.4191 19.67936,5.74446 44.16947,12.87938 68.44646,12.87938 24.28711,0 48.77726,-7.13492 68.45664,-12.87938 13.09248,-3.81612 25.46444,-7.4191 33.03575,-7.4191 7.16536,0 16.58389,3.27821 27.47398,7.08417 16.88835,5.88656 37.89728,13.21431 63.86919,13.21431 27.98145,0 50.74619,-22.76475 50.74619,-50.74621 0,-24.31757 -7.36831,-42.57606 -13.29549,-57.262 -3.75524,-9.31701 -7.00297,-17.37551 -7.00297,-23.93191 0,-8.04834 4.68896,-19.65909 9.22563,-30.88414 5.44,-13.46804 11.07283,-27.40295 11.07283,-40.16054 z M 462.5371,404.38606 c 0,11.16416 -9.13433,20.29848 -20.2985,20.29848 l -304.47717,0 c -11.16417,0 -20.29851,-9.13432 -20.29851,-20.29848 l 0,-223.28329 c 0,-11.16417 9.13434,-20.29847 20.29851,-20.29847 l 304.47717,0 c 11.16417,0 20.2985,9.1343 20.2985,20.29847 l 0,223.28329 z"
     id="path5"
     style="fill:#ffffff;fill-opacity:1" />
  <path
     inkscape:connector-curvature="0"
     d="m 365.07394,297.36232 c -2.31402,-1.15701 -4.61791,-2.30387 -5.76474,-2.30387 0,-1.15702 0,-1.15702 0,-2.31403 0,-1.15702 0,-1.15702 0,-2.31403 2.31399,-1.14686 4.61789,-1.14686 5.76474,-2.30388 16.17789,-9.24595 21.95281,-30.0316 12.70684,-46.20949 -9.23579,-16.16774 -30.03161,-21.94266 -46.20947,-12.70685 -2.30388,1.15701 -3.4609,2.31403 -5.77495,4.61791 -1.14684,-1.15701 -2.30385,-1.15701 -3.46089,-2.30388 0,-2.31403 1.15704,-4.62807 1.15704,-6.93193 0,-18.48177 -15.02091,-33.4925 -33.50266,-33.4925 -18.48176,0 -33.49251,15.01073 -33.49251,33.4925 0,2.30386 0,4.6179 1.15707,6.93193 -1.15707,1.14687 -2.31407,1.14687 -3.47107,2.30388 -1.157,-1.15701 -3.4609,-3.4609 -5.77489,-4.61791 -16.16777,-9.23581 -36.96357,-3.46089 -46.20953,12.70685 -9.2358,16.16774 -3.4609,36.96354 12.70686,46.20949 2.314,1.15702 4.6179,2.30388 5.7749,2.30388 0,1.15701 0,1.15701 0,2.31403 0,1.15701 0,1.15701 0,2.31403 -2.31401,1.14686 -4.62802,1.14686 -5.7749,2.30387 -16.16776,9.24595 -21.94266,30.0316 -12.70686,46.20949 9.24596,16.16774 30.03161,21.94265 46.20953,12.70686 2.31399,-1.14687 3.46089,-2.31404 5.77489,-4.62807 1.157,1.16717 2.314,1.16717 3.47107,2.32418 0,2.31403 -1.15707,4.61791 -1.15707,6.94209 0,18.47161 15.01075,33.49247 33.49251,33.49247 18.47165,0 33.50266,-15.01071 33.50266,-33.49247 0,-2.32418 0,-4.62806 -1.15704,-6.94209 1.15704,-1.14686 2.31405,-1.14686 3.46089,-2.32418 1.16717,1.16717 3.48122,3.4812 5.77495,4.62807 16.17786,9.23579 36.97368,3.46088 46.20947,-12.70686 9.25613,-16.17789 3.47105,-36.96354 -12.70684,-46.20949 z m -75.07393,25.82982 c -16.81728,0 -30.44773,-13.64058 -30.44773,-30.44772 0,-16.81729 13.63045,-30.44772 30.44773,-30.44772 16.80713,0 30.44773,13.63043 30.44773,30.44772 0,16.80714 -13.6406,30.44772 -30.44773,30.44772 z"
     id="path7"
     style="fill:#ffffff;fill-opacity:1" />
</svg>

<svg width="580" height="580" viewBox="0 0 580 580" fill="none" xmlns="http://www.w3.org/2000/svg">
<g clip-path="url(#clip0)">
<path d="M66.7751 1.26863C25.4401 1.26863 2.2041 22.6396 2.2041 66.3046V516.428C2.2041 557.272 23.0981 578.657 64.3961 578.657H516.42C557.727 578.657 578.649 558.341 578.649 516.428V66.3046C578.649 23.7036 557.727 1.26863 515.127 1.26863C515.124 1.26863 66.6331 1.12563 66.7751 1.26863V1.26863Z" fill="#111111" stroke="#EEEEEE" stroke-width="3.408"/>
<path d="M366.119 125.282C363.765 125.282 361.39 124.46 359.472 122.805L290 62.5898L220.528 122.805C216.296 126.469 209.872 126.012 206.208 121.78C202.544 117.548 203.001 111.134 207.233 107.46L283.352 41.4895C287.168 38.191 292.832 38.191 296.648 41.4895L372.767 107.46C376.999 111.134 377.456 117.548 373.792 121.78C371.783 124.094 368.951 125.282 366.119 125.282Z" fill="white"/>
<path d="M533.582 292.745C533.582 275.054 526.965 259.81 521.119 246.363C517.09 237.076 513.284 228.297 513.284 221.7C513.284 215.58 516.501 207.46 520.236 198.042C526.183 183.021 533.582 164.316 533.582 140.506C533.582 112.525 510.817 89.7598 482.836 89.7598C457.118 89.7598 435.256 97.2195 417.698 103.228C406.95 106.892 397.673 110.058 391.493 110.058C385.068 110.058 373.457 106.668 361.167 103.086C340.807 97.1484 315.485 89.7598 290 89.7598C264.515 89.7598 239.183 97.1484 218.834 103.086C206.533 106.668 194.922 110.058 188.508 110.058C182.327 110.058 173.051 106.892 162.313 103.228C144.744 97.2195 122.883 89.7598 97.1647 89.7598C69.1832 89.7598 46.4185 112.525 46.4185 140.506C46.4185 164.316 53.8173 183.021 59.7647 198.042C63.4996 207.46 66.7169 215.58 66.7169 221.7C66.7169 228.297 62.911 237.076 58.8716 246.363C53.0358 259.81 46.4185 275.054 46.4185 292.745C46.4185 305.502 52.0513 319.437 57.4913 332.905C62.028 344.13 66.7169 355.741 66.7169 363.789C66.7169 370.346 63.4692 378.404 59.7038 387.721C53.7868 402.407 46.4185 420.666 46.4185 444.983C46.4185 472.965 69.1832 495.729 97.1647 495.729C123.137 495.729 144.145 488.402 161.024 482.515C171.924 478.709 181.332 475.431 188.508 475.431C196.079 475.431 208.451 479.034 221.554 482.85C241.233 488.594 265.723 495.729 290 495.729C314.287 495.729 338.777 488.594 358.457 482.85C371.549 479.034 383.921 475.431 391.493 475.431C398.658 475.431 408.076 478.709 418.967 482.515C435.855 488.402 456.864 495.729 482.836 495.729C510.817 495.729 533.582 472.965 533.582 444.983C533.582 420.666 526.214 402.407 520.286 387.721C516.531 378.404 513.284 370.346 513.284 363.789C513.284 355.741 517.972 344.13 522.509 332.905C527.949 319.437 533.582 305.502 533.582 292.745V292.745ZM462.537 404.386C462.537 415.55 453.403 424.685 442.239 424.685H137.762C126.597 424.685 117.463 415.55 117.463 404.386V181.103C117.463 169.939 126.597 160.804 137.762 160.804H442.239C453.403 160.804 462.537 169.939 462.537 181.103V404.386Z" fill="white"/>
<path d="M365.074 297.362C362.76 296.205 360.456 295.058 359.309 295.058C359.309 293.901 359.309 293.901 359.309 292.744C359.309 291.587 359.309 291.587 359.309 290.43C361.623 289.283 363.927 289.283 365.074 288.126C381.252 278.88 387.027 258.095 377.781 241.917C368.545 225.749 347.749 219.974 331.571 229.21C329.267 230.367 328.11 231.524 325.796 233.828C324.65 232.671 323.493 232.671 322.336 231.524C322.336 229.21 323.493 226.896 323.493 224.592C323.493 206.11 308.472 191.1 289.99 191.1C271.508 191.1 256.497 206.11 256.497 224.592C256.497 226.896 256.497 229.21 257.654 231.524C256.497 232.671 255.34 232.671 254.183 233.828C253.026 232.671 250.722 230.367 248.408 229.21C232.241 219.974 211.445 225.749 202.199 241.917C192.963 258.085 198.738 278.88 214.906 288.126C217.22 289.283 219.524 290.43 220.681 290.43C220.681 291.587 220.681 291.587 220.681 292.744C220.681 293.901 220.681 293.901 220.681 295.058C218.367 296.205 216.053 296.205 214.906 297.362C198.738 306.608 192.963 327.394 202.199 343.572C211.445 359.739 232.231 365.514 248.408 356.278C250.722 355.132 251.869 353.964 254.183 351.65C255.34 352.818 256.497 352.818 257.654 353.975C257.654 356.289 256.497 358.593 256.497 360.917C256.497 379.388 271.508 394.409 289.99 394.409C308.462 394.409 323.493 379.398 323.493 360.917C323.493 358.593 323.493 356.289 322.336 353.975C323.493 352.828 324.65 352.828 325.796 351.65C326.964 352.818 329.278 355.132 331.571 356.278C347.749 365.514 368.545 359.739 377.781 343.572C387.037 327.394 381.252 306.608 365.074 297.362V297.362ZM290 323.192C273.183 323.192 259.552 309.551 259.552 292.744C259.552 275.927 273.183 262.297 290 262.297C306.807 262.297 320.448 275.927 320.448 292.744C320.448 309.551 306.807 323.192 290 323.192Z" fill="white"/>
</g>
<defs>
<clipPath id="clip0">
<path d="M0 0H580V580H0V0Z" fill="white"/>
</clipPath>
</defs>
</svg>
